source/images/icons/icon-email.svg

<?xml version="1.0" encoding="utf-8"?><!DOCTYPE svg PUBLIC "-//W3C//DTD SVG 1.1//EN" "http://www.w3.org/Graphics/SVG/1.1/DTD/svg11.dtd"><svg height="800px" width="800px" version="1.1" id="_x32_" xmlns="http://www.w3.org/2000/svg" xmlns:xlink="http://www.w3.org/1999/xlink" viewBox="0 0 512 512"  xml:space="preserve"><style type="text/css">.st0{fill:#000000;}</style><g><path class="st0" d="M510.746,110.361c-2.128-10.754-6.926-20.918-13.926-29.463c-1.422-1.794-2.909-3.39-4.535-5.009 c-12.454-12.52-29.778-19.701-47.531-19.701H67.244c-17.951,0-34.834,7-47.539,19.708c-1.608,1.604-3.099,3.216-4.575,5.067	c-6.97,8.509-11.747,18.659-13.824,29.428C0.438,114.62,0,119.002,0,123.435v265.137c0,9.224,1.874,18.206,5.589,26.745	c3.215,7.583,8.093,14.772,14.112,20.788c1.516,1.509,3.022,2.901,4.63,4.258c12.034,9.966,27.272,15.45,42.913,15.45h377.51	c15.742,0,30.965-5.505,42.967-15.56c1.604-1.298,3.091-2.661,4.578-4.148c5.818-5.812,10.442-12.49,13.766-19.854l0.438-1.05	c3.646-8.377,5.497-17.33,5.497-26.628V123.435C512,119.06,511.578,114.649,510.746,110.361z M34.823,99.104 c0.951-1.392,2.165-2.821,3.714-4.382c7.689-7.685,17.886-11.914,28.706-11.914h377.51c10.915,0,21.115,4.236,28.719,11.929 c1.313,1.327,2.567,2.8,3.661,4.272l2.887,3.88l-201.5,175.616c-6.212,5.446-14.21,8.443-22.523,8.443 c-8.231,0-16.222-2.99-22.508-8.436L32.19,102.939L34.823,99.104z M26.755,390.913c-0.109-0.722-0.134-1.524-0.134-2.341V128.925 l156.37,136.411L28.199,400.297L26.755,390.913z M464.899,423.84c-6.052,3.492-13.022,5.344-20.145,5.344H67.244 c-7.127,0-14.094-1.852-20.142-5.344l-6.328-3.668l159.936-139.379l17.528,15.246c10.514,9.128,23.922,14.16,37.761,14.16	c13.89,0,27.32-5.032,37.827-14.16l17.521-15.253L471.228,420.18L464.899,423.84z M485.372,388.572 c0,0.803-0.015,1.597-0.116,2.304l-1.386,9.472L329.012,265.409l156.36-136.418V388.572z"/></g></svg>

<svg xmlns="http://www.w3.org/2000/svg" viewBox="0 0 512 512" xml:space="preserve"><path d="M510.75 110.36a67.19 67.19 0 0 0-18.47-34.47 67.46 67.46 0 0 0-47.53-19.7h-377.5c-17.96 0-34.84 7-47.55 19.7a66.39 66.39 0 0 0-18.4 34.5 64.96 64.96 0 0 0-1.3 13.05v265.13a66.6 66.6 0 0 0 5.59 26.75 66.35 66.35 0 0 0 14.11 20.79c1.52 1.5 3.02 2.9 4.63 4.25a67.41 67.41 0 0 0 42.91 15.45h377.51a66.9 66.9 0 0 0 42.97-15.56 66.86 66.86 0 0 0 18.34-24l.44-1.05a66.3 66.3 0 0 0 5.5-26.63v-265.13c0-4.38-.42-8.8-1.25-13.08zm-475.93-11.26a31.62 31.62 0 0 1 3.72-4.38 40.36 40.36 0 0 1 28.7-11.91h377.51a40.06 40.06 0 0 1 32.38 16.2l2.89 3.88-201.5 175.62a34.13 34.13 0 0 1-22.52 8.44 34.4 34.4 0 0 1-22.51-8.44l-201.3-175.57 2.63-3.84zm-8.07 291.81c-.1-.72-.13-1.52-.13-2.34v-259.64l156.37 136.4-154.8 134.97-1.44-9.39zm438.15 32.93a40.35 40.35 0 0 1-20.15 5.34h-377.5c-7.13 0-14.1-1.85-20.15-5.34l-6.33-3.67 159.94-139.38 17.53 15.25a57.63 57.63 0 0 0 37.76 14.16 57.69 57.69 0 0 0 37.83-14.16l17.52-15.25 159.88 139.39-6.33 3.66zm20.47-35.27c0 .8-.01 1.6-.11 2.3l-1.39 9.48-154.86-134.94 156.36-136.42v259.58z" style="fill:#000"/></svg>
